Numix/16/emotes/face-smirk.svg

<?xml version="1.0" encoding="UTF-8" standalone="no"?>
<svg
   xmlns:dc="http://purl.org/dc/elements/1.1/"
   xmlns:cc="http://creativecommons.org/ns#"
   xmlns:rdf="http://www.w3.org/1999/02/22-rdf-syntax-ns#"
   xmlns:svg="http://www.w3.org/2000/svg"
   xmlns="http://www.w3.org/2000/svg"
   xmlns:sodipodi="http://sodipodi.sourceforge.net/DTD/sodipodi-0.dtd"
   xmlns:inkscape="http://www.inkscape.org/namespaces/inkscape"
   width="16px"
   height="16px"
   viewBox="0 0 12 12"
   version="1.1"
   id="svg3129"
   inkscape:version="0.91 r"
   sodipodi:docname="face-smirk.svg">
  <metadata
     id="metadata3148">
    <rdf:RDF>
      <cc:Work
         rdf:about="">
        <dc:format>image/svg+xml</dc:format>
        <dc:type
           rdf:resource="http://purl.org/dc/dcmitype/StillImage" />
      </cc:Work>
    </rdf:RDF>
  </metadata>
  <defs
     id="defs3146" />
  <sodipodi:namedview
     pagecolor="#ffffff"
     bordercolor="#666666"
     borderopacity="1"
     objecttolerance="10"
     gridtolerance="10"
     guidetolerance="10"
     inkscape:pageopacity="0"
     inkscape:pageshadow="2"
     inkscape:window-width="640"
     inkscape:window-height="480"
     id="namedview3144" />
  <g
     id="surface1">
    <path
       style=" stroke:none;fill-rule:nonzero;fill:rgb(100%,85.098039%,36.078431%);fill-opacity:1;"
       d="M 11.25 6 C 11.25 8.484375 8.898438 10.5 6 10.5 C 3.101562 10.5 0.75 8.484375 0.75 6 C 0.75 3.515625 3.097656 1.5 6 1.5 C 8.902344 1.5 11.25 3.515625 11.25 6 Z M 11.25 6 "
       id="path3132" />
    <path
       style=" stroke:none;fill-rule:nonzero;fill:rgb(38.823529%,38.823529%,38.823529%);fill-opacity:1;"
       d="M 3.476562 3.75 L 4.679688 3.75 C 4.761719 3.75 4.828125 3.835938 4.828125 3.9375 C 4.828125 4.039062 4.761719 4.125 4.679688 4.125 L 3.476562 4.125 C 3.394531 4.125 3.328125 4.039062 3.328125 3.9375 C 3.328125 3.835938 3.394531 3.75 3.476562 3.75 Z M 3.476562 3.75 "
       id="path3134" />
    <path
       style=" stroke:none;fill-rule:nonzero;fill:rgb(38.823529%,38.823529%,38.823529%);fill-opacity:1;"
       d="M 4.875 5.296875 C 4.875 5.738281 4.519531 6.09375 4.078125 6.09375 C 3.636719 6.09375 3.28125 5.738281 3.28125 5.296875 C 3.28125 4.855469 3.636719 4.5 4.078125 4.5 C 4.519531 4.5 4.875 4.855469 4.875 5.296875 Z M 4.875 5.296875 "
       id="path3136" />
    <path
       style=" stroke:none;fill-rule:nonzero;fill:rgb(38.823529%,38.823529%,38.823529%);fill-opacity:1;"
       d="M 8.71875 5.296875 C 8.71875 5.738281 8.363281 6.09375 7.921875 6.09375 C 7.480469 6.09375 7.125 5.738281 7.125 5.296875 C 7.125 4.855469 7.480469 4.5 7.921875 4.5 C 8.363281 4.5 8.71875 4.855469 8.71875 5.296875 Z M 8.71875 5.296875 "
       id="path3138" />
    <path
       style=" stroke:none;fill-rule:nonzero;fill:rgb(38.823529%,38.823529%,38.823529%);fill-opacity:1;"
       d="M 7.320312 3 L 8.523438 3 C 8.605469 3 8.671875 3.085938 8.671875 3.1875 C 8.671875 3.289062 8.605469 3.375 8.523438 3.375 L 7.320312 3.375 C 7.238281 3.375 7.171875 3.289062 7.171875 3.1875 C 7.171875 3.085938 7.238281 3 7.320312 3 Z M 7.320312 3 "
       id="path3140" />
    <path
       style=" stroke:none;fill-rule:nonzero;fill:rgb(38.823529%,38.823529%,38.823529%);fill-opacity:1;"
       d="M 7.875 7.125 C 7.738281 7.6875 6.972656 8.066406 6 8.066406 L 6 8.71875 C 7.117188 8.71875 8.066406 8.066406 8.25 7.125 Z M 7.875 7.125 "
       id="path3142" />
  </g>
</svg>

<svg xmlns="http://www.w3.org/2000/svg" width="16" height="16" viewBox="0 0 12 12">
 <g>
  <path d="m 11.25 6 c 0 2.484 -2.352 4.5 -5.25 4.5 c -2.898 0 -5.25 -2.02 -5.25 -4.5 c 0 -2.484 2.348 -4.5 5.25 -4.5 c 2.902 0 5.25 2.02 5.25 4.5 m 0 0" style="fill:#ffd85b;fill-opacity:1;stroke:none;fill-rule:nonzero"/>
  <path d="m 3.477 3.75 l 1.203 0 c 0.082 0 0.148 0.086 0.148 0.188 c 0 0.102 -0.066 0.188 -0.148 0.188 l -1.203 0 c -0.082 0 -0.148 -0.086 -0.148 -0.188 c 0 -0.102 0.066 -0.188 0.148 -0.188 m 0 0" style="fill:#626262;fill-opacity:1;stroke:none;fill-rule:nonzero"/>
  <path d="m 4.875 5.297 c 0 0.441 -0.355 0.797 -0.797 0.797 c -0.441 0 -0.797 -0.355 -0.797 -0.797 c 0 -0.441 0.355 -0.797 0.797 -0.797 c 0.441 0 0.797 0.355 0.797 0.797 m 0 0" style="fill:#626262;fill-opacity:1;stroke:none;fill-rule:nonzero"/>
  <path d="m 8.719 5.297 c 0 0.441 -0.355 0.797 -0.797 0.797 c -0.441 0 -0.797 -0.355 -0.797 -0.797 c 0 -0.441 0.355 -0.797 0.797 -0.797 c 0.441 0 0.797 0.355 0.797 0.797 m 0 0" style="fill:#626262;fill-opacity:1;stroke:none;fill-rule:nonzero"/>
  <path d="m 7.32 3 l 1.203 0 c 0.082 0 0.148 0.086 0.148 0.188 c 0 0.102 -0.066 0.188 -0.148 0.188 l -1.203 0 c -0.082 0 -0.148 -0.086 -0.148 -0.188 c 0 -0.102 0.066 -0.188 0.148 -0.188 m 0 0" style="fill:#626262;fill-opacity:1;stroke:none;fill-rule:nonzero"/>
  <path d="m 7.875 7.125 c -0.137 0.563 -0.902 0.941 -1.875 0.941 l 0 0.652 c 1.117 0 2.066 -0.652 2.25 -1.594 m -0.375 0" style="fill:#626262;fill-opacity:1;stroke:none;fill-rule:nonzero"/>
 </g>
</svg>
